X:1
T:Star Eyes
C:Gene De Paul
L:1/4
M:C
I:linebreak $
K:Eb
"Eb" F2"Eb6" E2 |"Fm" z E/F/"Bb7" G/B/G/B/ |"Eb" F2"Eb6" E2 ||[K:Db]"Ebm" z E/F/"Ab7" G/A/B/c/ |$
"Db" B2"Db6" A2 |"Gø" z d/c/"C7" B/c/d/e/ |"F" c2 z c |"Fø" _c/d/_c/d/"Bb7" B2O :|$
[K:Ab]"Ab" e e e A |"Ab6" B3 A ||[K:Gb]"Abm" e2 z A |"Db7" B2 z A |$"Gb" d2 z G |"Gb6" A2 z G ||
[K:Eb]"Fm" A A B A |"Bb7""_D.C. al Coda" F4 ||$Ox/"Eb7" e2"D7" z d |"Db7" _d2"C7" c2 |
"Fm" z F"Bb7" (3A c e |"Eb6" e4 | z4 |]

